website/src/static/charts/compacthorizontalbarchart.svg

<svg width="144" height="80" viewBox="0 0 144 80" fill="none" xmlns="http://www.w3.org/2000/svg">
<rect width="144" height="80" fill="white"/>
<path d="M8 8V15.2727H12.2614V14.4915H8.88068V8H8Z" fill="#191B23"/>
<path fill-rule="evenodd" clip-rule="evenodd" d="M19.2598 8V15.2727H20.0694V14.4347H20.1689C20.2304 14.5341 20.318 14.6596 20.4316 14.8111C20.5453 14.9602 20.7074 15.094 20.9181 15.2124C21.1288 15.3284 21.4094 15.3864 21.7598 15.3864C22.2143 15.3864 22.6156 15.2715 22.9636 15.0419C23.3116 14.8099 23.5839 14.4832 23.7804 14.0618C23.9769 13.638 24.0751 13.1373 24.0751 12.5597C24.0751 11.9867 23.9769 11.4896 23.7804 11.0682C23.5839 10.6468 23.3104 10.3213 22.96 10.0916C22.6097 9.86198 22.2048 9.74716 21.7456 9.74716C21.3904 9.74716 21.1087 9.80635 20.9004 9.92472C20.6944 10.0407 20.5358 10.1733 20.4245 10.3224C20.3156 10.4692 20.2304 10.59 20.1689 10.6847H20.0978V8H19.2598ZM20.2647 13.6357C20.144 13.3208 20.0836 12.9574 20.0836 12.5455C20.0836 12.1383 20.1428 11.782 20.2612 11.4766C20.3796 11.1688 20.5547 10.9297 20.7868 10.7592C21.0188 10.5864 21.3052 10.5 21.6461 10.5C22.0012 10.5 22.296 10.5911 22.5304 10.7734C22.7671 10.9534 22.9435 11.1984 23.0595 11.5085C23.1779 11.8163 23.237 12.1619 23.237 12.5455C23.237 12.9337 23.1767 13.2865 23.0559 13.6037C22.9376 13.9186 22.76 14.1695 22.5233 14.3565C22.2889 14.5412 21.9965 14.6335 21.6461 14.6335C21.31 14.6335 21.0259 14.5459 20.7939 14.3707C20.5618 14.1932 20.3855 13.9482 20.2647 13.6357Z" fill="#191B23"/>
<path d="M32.0153 8V15.2727H31.1772V8H32.0153Z" fill="#191B23"/>
<path fill-rule="evenodd" clip-rule="evenodd" d="M27.6442 15.3864C27.1186 15.3864 26.6652 15.2704 26.2841 15.0384C25.9053 14.804 25.6129 14.4773 25.407 14.0582C25.2034 13.6368 25.1016 13.1468 25.1016 12.5881C25.1016 12.0294 25.2034 11.5369 25.407 11.1108C25.6129 10.6823 25.8994 10.3485 26.2663 10.1094C26.6357 9.8679 27.0665 9.74716 27.5589 9.74716C27.843 9.74716 28.1236 9.79451 28.4006 9.88921C28.6776 9.9839 28.9297 10.1378 29.157 10.3509C29.3842 10.5616 29.5653 10.8409 29.7003 11.1889C29.8352 11.5369 29.9027 11.9654 29.9027 12.4744V12.8295H25.9415C25.9535 13.1924 26.0239 13.5038 26.1527 13.7635C26.2971 14.0476 26.4972 14.2642 26.7528 14.4134C27.0085 14.5601 27.3056 14.6335 27.6442 14.6335C27.8643 14.6335 28.0632 14.6027 28.2408 14.5412C28.4207 14.4773 28.5758 14.3826 28.706 14.2571C28.8362 14.1293 28.9368 13.9706 29.0078 13.7813L29.8175 14.0085C29.7322 14.2831 29.589 14.5246 29.3878 14.733C29.1866 14.9389 28.938 15.0999 28.642 15.2159C28.3461 15.3295 28.0135 15.3864 27.6442 15.3864ZM26.1349 11.3878C26.0234 11.613 25.9596 11.8521 25.9436 12.1051H29.0504C29.0504 11.7974 28.9889 11.5227 28.8658 11.2813C28.745 11.0398 28.5722 10.8492 28.3473 10.7095C28.1248 10.5698 27.862 10.5 27.5589 10.5C27.2251 10.5 26.9363 10.5829 26.6925 10.7486C26.451 10.9119 26.2652 11.125 26.1349 11.3878Z" fill="#191B23"/>
<path fill-rule="evenodd" clip-rule="evenodd" d="M15.1167 15.4006C14.771 15.4006 14.4573 15.3355 14.1756 15.2053C13.8939 15.0727 13.6702 14.8821 13.5044 14.6335C13.3387 14.3826 13.2559 14.0795 13.2559 13.7244C13.2559 13.4119 13.3174 13.1586 13.4405 12.9645C13.5636 12.768 13.7282 12.6141 13.9341 12.5028C14.1401 12.3916 14.3674 12.3087 14.6159 12.2543C14.8669 12.1974 15.119 12.1525 15.3723 12.1193C15.7038 12.0767 15.9725 12.0447 16.1784 12.0234C16.3868 11.9998 16.5383 11.9607 16.633 11.9063C16.7301 11.8518 16.7786 11.7571 16.7786 11.6222V11.5938C16.7786 11.2434 16.6827 10.9711 16.4909 10.777C16.3016 10.5829 16.0139 10.4858 15.628 10.4858C15.2279 10.4858 14.9142 10.5734 14.687 10.7486C14.4597 10.9238 14.2999 11.1108 14.2076 11.3097L13.4121 11.0256C13.5542 10.6941 13.7435 10.4361 13.9803 10.2514C14.2194 10.0644 14.4798 9.93419 14.7615 9.8608C15.0456 9.78504 15.325 9.74716 15.5996 9.74716C15.7748 9.74716 15.976 9.76847 16.2033 9.81108C16.4329 9.85133 16.6543 9.93537 16.8674 10.0632C17.0828 10.1911 17.2615 10.384 17.4036 10.642C17.5456 10.9001 17.6167 11.2457 17.6167 11.679V15.2727H16.7786V14.5341H16.736C16.6792 14.6525 16.5845 14.7791 16.4519 14.9141C16.3193 15.049 16.1429 15.1638 15.9228 15.2585C15.7026 15.3532 15.4339 15.4006 15.1167 15.4006ZM15.2445 14.6477C15.5759 14.6477 15.8553 14.5826 16.0826 14.4524C16.3122 14.3222 16.485 14.1541 16.601 13.9482C16.7194 13.7422 16.7786 13.5256 16.7786 13.2983V12.5313C16.7431 12.5739 16.665 12.6129 16.5442 12.6484C16.4258 12.6816 16.2885 12.7112 16.1323 12.7372C15.9784 12.7609 15.8281 12.7822 15.6813 12.8011C15.5369 12.8177 15.4197 12.8319 15.3297 12.8438C15.1119 12.8722 14.9083 12.9183 14.7189 12.9822C14.5319 13.0438 14.3804 13.1373 14.2644 13.2628C14.1507 13.3859 14.0939 13.554 14.0939 13.767C14.0939 14.0582 14.2016 14.2784 14.4171 14.4276C14.6349 14.5743 14.9107 14.6477 15.2445 14.6477Z" fill="#191B23"/>
<g clip-path="url(#clip0_694_8222)">
<rect width="128" height="18.5994" transform="translate(8 17.4006)" fill="#E0E1E9"/>
<rect width="89.6" height="19" transform="translate(8 17.4006)" fill="#2BB3FF"/>
</g>
<path d="M8 44V51.2727H12.2614V50.4915H8.88068V44H8Z" fill="#191B23"/>
<path fill-rule="evenodd" clip-rule="evenodd" d="M19.2598 44V51.2727H20.0694V50.4347H20.1689C20.2304 50.5341 20.318 50.6596 20.4316 50.8111C20.5453 50.9602 20.7074 51.094 20.9181 51.2124C21.1288 51.3284 21.4094 51.3864 21.7598 51.3864C22.2143 51.3864 22.6156 51.2715 22.9636 51.0419C23.3116 50.8099 23.5839 50.4832 23.7804 50.0618C23.9769 49.638 24.0751 49.1373 24.0751 48.5597C24.0751 47.9867 23.9769 47.4896 23.7804 47.0682C23.5839 46.6468 23.3104 46.3213 22.96 46.0916C22.6097 45.862 22.2048 45.7472 21.7456 45.7472C21.3904 45.7472 21.1087 45.8063 20.9004 45.9247C20.6944 46.0407 20.5358 46.1733 20.4245 46.3224C20.3156 46.4692 20.2304 46.59 20.1689 46.6847H20.0978V44H19.2598ZM20.2647 49.6357C20.144 49.3208 20.0836 48.9574 20.0836 48.5455C20.0836 48.1383 20.1428 47.782 20.2612 47.4766C20.3796 47.1688 20.5547 46.9297 20.7868 46.7592C21.0188 46.5864 21.3052 46.5 21.6461 46.5C22.0012 46.5 22.296 46.5911 22.5304 46.7734C22.7671 46.9534 22.9435 47.1984 23.0595 47.5085C23.1779 47.8163 23.237 48.1619 23.237 48.5455C23.237 48.9337 23.1767 49.2865 23.0559 49.6037C22.9376 49.9186 22.76 50.1695 22.5233 50.3565C22.2889 50.5412 21.9965 50.6335 21.6461 50.6335C21.31 50.6335 21.0259 50.5459 20.7939 50.3707C20.5618 50.1932 20.3855 49.9482 20.2647 49.6357Z" fill="#191B23"/>
<path d="M32.0153 44V51.2727H31.1772V44H32.0153Z" fill="#191B23"/>
<path fill-rule="evenodd" clip-rule="evenodd" d="M27.6442 51.3863C27.1186 51.3863 26.6652 51.2703 26.2841 51.0383C25.9053 50.8039 25.6129 50.4772 25.407 50.0582C25.2034 49.6368 25.1016 49.1468 25.1016 48.588C25.1016 48.0293 25.2034 47.5369 25.407 47.1108C25.6129 46.6823 25.8994 46.3485 26.2663 46.1093C26.6357 45.8679 27.0665 45.7471 27.5589 45.7471C27.843 45.7471 28.1236 45.7945 28.4006 45.8892C28.6776 45.9839 28.9297 46.1378 29.157 46.3508C29.3842 46.5615 29.5653 46.8409 29.7003 47.1889C29.8352 47.5369 29.9027 47.9654 29.9027 48.4744V48.8295H25.9415C25.9535 49.1924 26.0239 49.5037 26.1527 49.7635C26.2971 50.0476 26.4972 50.2642 26.7528 50.4133C27.0085 50.5601 27.3056 50.6335 27.6442 50.6335C27.8643 50.6335 28.0632 50.6027 28.2408 50.5412C28.4207 50.4772 28.5758 50.3825 28.706 50.2571C28.8362 50.1292 28.9368 49.9706 29.0078 49.7812L29.8175 50.0085C29.7322 50.2831 29.589 50.5246 29.3878 50.7329C29.1866 50.9389 28.938 51.0999 28.642 51.2159C28.3461 51.3295 28.0135 51.3863 27.6442 51.3863ZM26.1349 47.3878C26.0234 47.613 25.9596 47.8521 25.9436 48.1051H29.0504C29.0504 47.7973 28.9889 47.5227 28.8658 47.2812C28.745 47.0397 28.5722 46.8492 28.3473 46.7095C28.1248 46.5698 27.862 46.5 27.5589 46.5C27.2251 46.5 26.9363 46.5828 26.6925 46.7486C26.451 46.9119 26.2652 47.125 26.1349 47.3878Z" fill="#191B23"/>
<path fill-rule="evenodd" clip-rule="evenodd" d="M15.1167 51.4005C14.771 51.4005 14.4573 51.3354 14.1756 51.2052C13.8939 51.0727 13.6702 50.8821 13.5044 50.6335C13.3387 50.3825 13.2559 50.0795 13.2559 49.7244C13.2559 49.4119 13.3174 49.1586 13.4405 48.9645C13.5636 48.768 13.7282 48.6141 13.9341 48.5028C14.1401 48.3915 14.3674 48.3087 14.6159 48.2542C14.8669 48.1974 15.119 48.1524 15.3723 48.1193C15.7038 48.0767 15.9725 48.0447 16.1784 48.0234C16.3868 47.9997 16.5383 47.9607 16.633 47.9062C16.7301 47.8518 16.7786 47.7571 16.7786 47.6221V47.5937C16.7786 47.2433 16.6827 46.9711 16.4909 46.777C16.3016 46.5828 16.0139 46.4858 15.628 46.4858C15.2279 46.4858 14.9142 46.5734 14.687 46.7486C14.4597 46.9237 14.2999 47.1108 14.2076 47.3096L13.4121 47.0255C13.5542 46.6941 13.7435 46.4361 13.9803 46.2514C14.2194 46.0644 14.4798 45.9342 14.7615 45.8608C15.0456 45.785 15.325 45.7471 15.5996 45.7471C15.7748 45.7471 15.976 45.7684 16.2033 45.8111C16.4329 45.8513 16.6543 45.9353 16.8674 46.0632C17.0828 46.191 17.2615 46.384 17.4036 46.642C17.5456 46.9001 17.6167 47.2457 17.6167 47.6789V51.2727H16.7786V50.5341H16.736C16.6792 50.6524 16.5845 50.7791 16.4519 50.914C16.3193 51.049 16.1429 51.1638 15.9228 51.2585C15.7026 51.3532 15.4339 51.4005 15.1167 51.4005ZM15.2445 50.6477C15.5759 50.6477 15.8553 50.5826 16.0826 50.4524C16.3122 50.3222 16.485 50.1541 16.601 49.9481C16.7194 49.7422 16.7786 49.5255 16.7786 49.2983V48.5312C16.7431 48.5738 16.665 48.6129 16.5442 48.6484C16.4258 48.6816 16.2885 48.7111 16.1323 48.7372C15.9784 48.7609 15.8281 48.7822 15.6813 48.8011C15.5369 48.8177 15.4197 48.8319 15.3297 48.8437C15.1119 48.8721 14.9083 48.9183 14.7189 48.9822C14.5319 49.0438 14.3804 49.1373 14.2644 49.2628C14.1507 49.3859 14.0939 49.5539 14.0939 49.767C14.0939 50.0582 14.2016 50.2784 14.4171 50.4275C14.6349 50.5743 14.9107 50.6477 15.2445 50.6477Z" fill="#191B23"/>
<g clip-path="url(#clip1_694_8222)">
<rect width="128" height="18.5994" transform="translate(8 53.4006)" fill="#E0E1E9"/>
<rect width="38.4" height="19" transform="translate(8 53.4006)" fill="#2BB3FF"/>
</g>
<defs>
<clipPath id="clip0_694_8222">
<rect width="128" height="18.5994" fill="white" transform="translate(8 17.4006)"/>
</clipPath>
<clipPath id="clip1_694_8222">
<rect width="128" height="18.5994" fill="white" transform="translate(8 53.4006)"/>
</clipPath>
</defs>
</svg>

<svg xmlns="http://www.w3.org/2000/svg" width="144" height="80" fill="none" viewBox="0 0 144 80">
  <path fill="#fff" d="M0 0h144v80H0z"/>
  <path fill="#191B23" d="M8 8v7.273h4.261v-.781h-3.38V8H8Z"/>
  <path fill="#191B23" fill-rule="evenodd" d="M19.26 8v7.273h.81v-.838h.099c.061.1.149.225.263.376.113.15.275.283.486.401.21.116.491.174.842.174.454 0 .856-.114 1.204-.344.348-.232.62-.559.816-.98.197-.424.295-.925.295-1.502 0-.573-.098-1.07-.295-1.492a2.292 2.292 0 0 0-.82-.976 2.165 2.165 0 0 0-1.214-.345c-.356 0-.637.06-.846.178a1.499 1.499 0 0 0-.476.397 7.431 7.431 0 0 0-.255.363h-.071V8h-.838Zm1.005 5.636a3.034 3.034 0 0 1-.181-1.09c0-.408.059-.764.177-1.07.119-.307.294-.546.526-.717.232-.173.518-.259.86-.259.354 0 .649.091.883.273.237.18.413.425.53.736.118.307.177.653.177 1.037 0 .388-.06.74-.181 1.058a1.693 1.693 0 0 1-.533.753c-.234.184-.526.277-.877.277-.336 0-.62-.088-.852-.263a1.646 1.646 0 0 1-.53-.735Z" clip-rule="evenodd"/>
  <path fill="#191B23" d="M32.015 8v7.273h-.838V8h.838Z"/>
  <path fill="#191B23" fill-rule="evenodd" d="M27.644 15.386c-.525 0-.979-.116-1.36-.348a2.335 2.335 0 0 1-.877-.98c-.204-.421-.305-.911-.305-1.47 0-.559.101-1.051.305-1.477.206-.429.492-.763.86-1.002.369-.241.8-.362 1.292-.362.284 0 .565.048.842.142.277.095.529.249.756.462.227.21.408.49.543.838.135.348.203.776.203 1.285v.355h-3.961c.011.363.082.675.21.934.145.285.345.501.6.65.257.147.554.22.892.22.22 0 .42-.03.597-.092.18-.064.335-.158.465-.284.13-.128.23-.286.302-.476l.81.227a1.797 1.797 0 0 1-.43.725c-.201.206-.45.367-.746.483-.296.114-.628.17-.998.17Zm-1.51-3.998a1.866 1.866 0 0 0-.19.717h3.106c0-.308-.061-.582-.184-.824a1.392 1.392 0 0 0-.519-.572 1.452 1.452 0 0 0-.788-.209c-.334 0-.623.083-.867.249a1.635 1.635 0 0 0-.557.639ZM15.117 15.4c-.346 0-.66-.065-.941-.195a1.616 1.616 0 0 1-.672-.572c-.165-.25-.248-.553-.248-.909 0-.312.061-.565.184-.76.124-.196.288-.35.494-.461.206-.111.433-.194.682-.249.25-.057.503-.101.756-.135.332-.042.6-.074.806-.096.209-.023.36-.062.455-.117.097-.054.146-.149.146-.284v-.028c0-.35-.096-.623-.288-.817-.19-.194-.477-.291-.863-.291-.4 0-.714.087-.941.263a1.553 1.553 0 0 0-.48.56l-.795-.283a1.91 1.91 0 0 1 .568-.775c.24-.187.5-.317.781-.39.285-.076.564-.114.839-.114.175 0 .376.021.603.064.23.04.451.124.664.252.216.128.395.321.537.579.142.258.213.604.213 1.037v3.594h-.838v-.739h-.043a1.475 1.475 0 0 1-.284.38 1.64 1.64 0 0 1-.53.345c-.22.094-.488.142-.805.142Zm.127-.752c.332 0 .611-.065.839-.196a1.33 1.33 0 0 0 .696-1.154v-.767c-.036.043-.114.082-.235.117a3.931 3.931 0 0 1-.412.09 18.409 18.409 0 0 1-.802.106 3.203 3.203 0 0 0-.611.138 1.053 1.053 0 0 0-.455.28c-.113.124-.17.292-.17.505 0 .291.108.511.323.66.218.147.494.22.828.22Z" clip-rule="evenodd"/>
  <g clip-path="url(#a)">
    <path fill="#E0E1E9" d="M8 17.4h128V36H8z"/>
    <path fill="#2BB3FF" d="M8 17.4h115.2v19H8z"/>
  </g>
  <path fill="#191B23" d="M8 44v7.273h4.261v-.782h-3.38V44H8Z"/>
  <path fill="#191B23" fill-rule="evenodd" d="M19.26 44v7.273h.81v-.838h.099c.061.1.149.225.263.376.113.15.275.283.486.401.21.116.491.174.842.174.454 0 .856-.114 1.204-.344.348-.232.62-.559.816-.98.197-.424.295-.925.295-1.502 0-.573-.098-1.07-.295-1.492a2.292 2.292 0 0 0-.82-.976 2.165 2.165 0 0 0-1.214-.345c-.356 0-.637.06-.846.178a1.5 1.5 0 0 0-.476.397 7.431 7.431 0 0 0-.255.363h-.071V44h-.838Zm1.005 5.636a3.034 3.034 0 0 1-.181-1.09c0-.408.059-.764.177-1.07.119-.307.294-.546.526-.717.232-.173.518-.259.86-.259.354 0 .649.091.883.273.237.18.413.425.53.735.118.308.177.654.177 1.037 0 .389-.06.741-.181 1.059a1.693 1.693 0 0 1-.533.752c-.234.185-.526.277-.877.277-.336 0-.62-.087-.852-.262a1.646 1.646 0 0 1-.53-.735Z" clip-rule="evenodd"/>
  <path fill="#191B23" d="M32.015 44v7.273h-.838V44h.838Z"/>
  <path fill="#191B23" fill-rule="evenodd" d="M27.644 51.386c-.525 0-.979-.116-1.36-.348a2.336 2.336 0 0 1-.877-.98c-.204-.421-.305-.911-.305-1.47 0-.559.101-1.051.305-1.477a2.41 2.41 0 0 1 .86-1.002c.369-.241.8-.362 1.292-.362.284 0 .565.047.842.142.277.095.529.249.756.462.227.21.408.49.543.838.135.348.203.776.203 1.285v.356h-3.961c.011.362.082.674.21.934.145.284.345.5.6.65.257.146.554.22.892.22.22 0 .42-.031.597-.093a1.28 1.28 0 0 0 .465-.284c.13-.128.23-.286.302-.476l.81.227a1.796 1.796 0 0 1-.43.725c-.201.206-.45.367-.746.483-.296.114-.628.17-.998.17Zm-1.51-3.998a1.866 1.866 0 0 0-.19.717h3.106c0-.308-.061-.582-.184-.824a1.392 1.392 0 0 0-.519-.572 1.452 1.452 0 0 0-.788-.209c-.334 0-.623.083-.867.249a1.635 1.635 0 0 0-.557.639ZM15.117 51.4c-.346 0-.66-.065-.941-.195a1.615 1.615 0 0 1-.672-.572c-.165-.25-.248-.553-.248-.909 0-.312.061-.565.184-.76.124-.196.288-.35.494-.461.206-.111.433-.194.682-.249.25-.057.503-.102.756-.135.332-.042.6-.074.806-.096.209-.023.36-.062.455-.117.097-.054.146-.149.146-.284v-.028c0-.35-.096-.623-.288-.817-.19-.194-.477-.291-.863-.291-.4 0-.714.087-.941.263a1.553 1.553 0 0 0-.48.56l-.795-.283a1.91 1.91 0 0 1 .568-.775c.24-.187.5-.317.781-.39.285-.076.564-.114.839-.114.175 0 .376.021.603.064.23.04.451.124.664.252.216.128.395.321.537.579.142.258.213.604.213 1.037v3.594h-.838v-.739h-.043a1.475 1.475 0 0 1-.284.38 1.64 1.64 0 0 1-.53.344c-.22.095-.488.142-.805.142Zm.127-.752c.332 0 .611-.065.839-.196a1.33 1.33 0 0 0 .696-1.154v-.767c-.036.043-.114.082-.235.117a3.957 3.957 0 0 1-.412.09 18.409 18.409 0 0 1-.802.106 3.203 3.203 0 0 0-.611.138 1.053 1.053 0 0 0-.455.28c-.113.124-.17.292-.17.505 0 .291.108.511.323.66.218.147.494.22.828.22Z" clip-rule="evenodd"/>
  <g clip-path="url(#b)">
    <path fill="#E0E1E9" d="M8 53.4h128V72H8z"/>
    <path fill="#2BB3FF" d="M8 53.4h89.6v19H8z"/>
  </g>
  <defs>
    <clipPath id="a">
      <path fill="#fff" d="M8 17.4h128V36H8z"/>
    </clipPath>
    <clipPath id="b">
      <path fill="#fff" d="M8 53.4h128V72H8z"/>
    </clipPath>
  </defs>
</svg>
